svg/regular/bx-popsicle.svg

<svg xmlns="http://www.w3.org/2000/svg" width="24" height="24"><path d="M15 2a7 7 0 0 0-4.94 2l-7.78 7.82a1 1 0 0 0 0 1.41l3.54 3.54-3.54 3.53 1.42 1.42 3.53-3.54 3.54 3.54a1 1 0 0 0 1.41 0L20 13.94A7 7 0 0 0 15 2zm3.54 10.54-7.07 7.06-2.82-2.83-1.42-1.42-2.83-2.83 7.07-7.07a5 5 0 0 1 7.08 7.08z"/></svg>

<svg xmlns="http://www.w3.org/2000/svg" width="24" height="24" viewBox="0 0 24 24"><path d="M15,2A7,7,0,0,0,10.06,4L2.28,11.82a1,1,0,0,0,0,1.41l3.54,3.54L2.28,20.3,3.7,21.72l3.53-3.54,3.54,3.54a1,1,0,0,0,1.41,0L20,13.94A7,7,0,0,0,15,2Zm3.54,10.54L11.47,19.6,8.65,16.77h0L7.23,15.35h0L4.4,12.52l7.07-7.07a5,5,0,0,1,7.08,7.08Z"/></svg>
